lib/functional/maps&travel/map-trifold.svg

<svg xmlns="http://www.w3.org/2000/svg" fill="none" stroke="currentColor" aria-hidden="true" viewBox="0 0 32 32"><g stroke="#101828" stroke-linecap="round" stroke-linejoin="round" stroke-width="2" clip-path="url(#a)"><path d="m12 23-8 2V7l8-2m8 22-8-4V5l8 4v18Zm0-18 8-2v18l-8 2"/></g><defs><clipPath id="a"><rect width="32" height="32" fill="#fff" rx="5"/></clipPath></defs></svg>

<svg xmlns="http://www.w3.org/2000/svg" fill="none" stroke="currentColor" aria-hidden="true" viewBox="0 0 32 32"><g id="Icon-MapTrifold"><g clip-path="url(#clip0_10_1546)"><g id="size=md (32px)"><g id="MapTrifold"><path id="Vector" stroke-linecap="round" stroke-linejoin="round" stroke-width="2" d="M12 23L4 25V7L12 5"/><path id="Vector_2" stroke-linecap="round" stroke-linejoin="round" stroke-width="2" d="M20 27L12 23V5L20 9V27Z"/><path id="Vector_3" stroke-linecap="round" stroke-linejoin="round" stroke-width="2" d="M20 9L28 7V25L20 27"/></g></g></g></g><defs><clipPath id="clip0_10_1546"><rect width="32" height="32" fill="white" rx="5"/></clipPath></defs></svg>
